.local/share/icons/Gruvbox-Plus-Dark/mimetypes/scalable/application-pdf.svg

<svg width="256" height="256" viewBox="0 0 256 256" fill="none" xmlns="http://www.w3.org/2000/svg">
<g clip-path="url(#clip0)">
<g opacity="0.4" filter="url(#filter0_f)">
<path d="M55.0839 15.5636H155.608L216.009 75.7129L216.011 224.609C216.011 233.52 208.749 240.737 199.838 240.737H55.0838C46.1734 240.737 39 233.564 39 224.654V31.6474C39 22.737 46.1734 15.5636 55.0838 15.5636H55.0839Z" fill="#282828"/>
</g>
<path d="M55.0839 15H155.608L216.009 75.1493L216.011 224.045C216.011 232.956 208.749 240.174 199.838 240.174H55.0838C46.1734 240.174 39 233 39 224.09V31.0838C39 22.1734 46.1734 15 55.0838 15H55.0839Z" fill="#ebdbb2"/>
<path fill-rule="evenodd" clip-rule="evenodd" d="M155.608 20.3191H55.0839C49.1112 20.3191 44.3191 25.1111 44.3191 31.0838V224.09C44.3191 230.063 49.1111 234.855 55.0838 234.855H199.838C205.83 234.855 210.692 229.999 210.692 224.046V75.1493L155.608 20.3191ZM155.608 15H55.0839C46.1735 15 39 22.1734 39 31.0838V224.09C39 233 46.1734 240.174 55.0838 240.174H199.838C208.749 240.174 216.011 232.956 216.011 224.045L216.009 75.1493L155.608 15Z" fill="url(#paint0_linear)"/>
<path d="M106.877 138.033C110.531 130.709 114.684 122.457 118.006 114.173L119.322 110.902C114.979 94.0043 112.377 80.4441 114.701 71.6744C115.325 69.3854 117.916 68 120.683 68L122.37 68.0248H122.681C126.467 67.9646 128.251 72.8969 128.455 74.8138C128.788 78.0028 127.347 83.4098 127.347 83.4098C127.347 81.2272 127.43 77.7016 126.083 74.6579C124.517 71.1394 123.017 69.0346 121.677 68.7051C120.998 69.1657 120.34 70.1224 120.118 71.965C119.647 74.5516 119.509 77.8185 119.509 79.498C119.509 85.4437 120.652 93.2886 122.903 101.378C123.326 100.127 123.7 98.9224 123.994 97.7957C124.455 96.0169 127.388 84.2425 127.388 84.2425C127.388 84.2425 126.647 99.9181 125.615 104.663C125.397 105.665 125.151 106.654 124.898 107.671C128.604 118.265 134.579 127.726 141.707 134.533C144.512 137.219 148.066 139.387 151.422 141.361C158.758 140.287 165.512 139.784 171.147 139.848C178.622 139.947 184.108 141.077 186.328 143.32C187.416 144.404 187.859 145.719 187.998 147.193C188.029 147.767 187.755 149.113 187.675 149.45C187.755 149.043 187.755 147.03 181.753 145.07C177.028 143.526 168.186 143.572 157.57 144.727C169.848 150.871 181.805 153.925 185.597 152.097C186.522 151.636 187.648 150.059 187.648 150.059C187.648 150.059 186.979 153.163 186.498 153.939C185.743 154.92 184.713 155.641 183.547 156.005C177.562 157.635 161.983 153.858 148.399 145.917C133.225 148.203 116.558 152.426 103.199 156.909C90.072 180.447 80.2008 191.257 72.1722 187.144L69.2212 185.627C68.0194 184.922 67.8358 183.218 68.1129 181.822C69.0481 177.137 74.7941 170.079 86.3313 163.035C87.5713 162.266 93.1026 159.272 93.1026 159.272C93.1026 159.272 89.0086 163.329 88.0458 164.126C78.8396 171.844 72.0441 181.552 72.2172 185.315L72.2484 185.645C80.0692 184.507 91.8003 168.219 106.877 138.037V138.033ZM111.657 140.539C109.139 145.393 106.676 149.893 104.404 154.021C116.977 148.635 130.509 145.184 143.39 142.735C141.658 141.513 139.979 140.22 138.396 138.848C131.302 132.704 125.892 125.04 121.975 116.976C119.069 125.063 115.622 132.936 111.657 140.539" fill="url(#paint1_linear)"/>
<path opacity="0.25" d="M155.608 17V61.2306C155.608 70.141 162.867 77.1605 171.777 77.1605L216.009 77.1493V75.1493L155.608 17Z" fill="#282828"/>
<path d="M155.608 15V59.2306C155.608 68.141 162.867 75.1605 171.777 75.1605L216.009 75.1493L155.608 15Z" fill="url(#paint2_linear)"/>
</g>
<defs>
<filter id="filter0_f" x="23.8778" y="0.441412" width="207.255" height="255.418" filterUnits="userSpaceOnUse" color-interpolation-filters="sRGB">
<feFlood flood-opacity="0" result="BackgroundImageFix"/>
<feBlend mode="normal" in="SourceGraphic" in2="BackgroundImageFix" result="shape"/>
<feGaussianBlur stdDeviation="7.5611" result="effect1_foregroundBlur"/>
</filter>
<linearGradient id="paint0_linear" x1="39" y1="15" x2="39" y2="240.174" gradientUnits="userSpaceOnUse">
<stop offset="1e-07" stop-color="#fb4934"/>
<stop offset="1" stop-color="#cc241d"/>
</linearGradient>
<linearGradient id="paint1_linear" x1="68" y1="68" x2="68" y2="188" gradientUnits="userSpaceOnUse">
<stop offset="1e-07" stop-color="#fb4934"/>
<stop offset="1" stop-color="#cc241d"/>
</linearGradient>
<linearGradient id="paint2_linear" x1="155.608" y1="15" x2="155.608" y2="75.1605" gradientUnits="userSpaceOnUse">
<stop offset="1e-07" stop-color="#fb4934"/>
<stop offset="1" stop-color="#cc241d"/>
</linearGradient>
<clipPath id="clip0">
<rect width="256" height="256" fill="#ebdbb2"/>
</clipPath>
</defs>
</svg>

<svg width="256" height="256" fill="none" version="1.1" viewBox="0 0 256 256" xmlns="http://www.w3.org/2000/svg">
  <path d="m55.08 15h100.5l60.4 60.15 2e-3 148.9c0 8.911-7.262 16.13-16.17 16.13h-144.8c-8.91 0-16.08-7.174-16.08-16.08v-193c0-8.91 7.173-16.08 16.08-16.08h1e-4z" fill="#ebdbb2"/>
  <path d="m155.6 20.32h-100.5c-5.973 0-10.76 4.792-10.76 10.76v193c0 5.973 4.792 10.76 10.76 10.76h144.8c5.992 0 10.85-4.856 10.85-10.81v-148.9l-55.08-54.83zm0-5.319h-100.5c-8.91 0-16.08 7.173-16.08 16.08v193c0 8.91 7.173 16.08 16.08 16.08h144.8c8.911 0 16.17-7.218 16.17-16.13l-2e-3 -148.9-60.4-60.15z" clip-rule="evenodd" fill="url(#paint0_linear)" fill-rule="evenodd"/>
  <path d="m106.9 138c3.654-7.324 7.807-15.58 11.13-23.86l1.316-3.271c-4.343-16.9-6.945-30.46-4.621-39.23 0.624-2.289 3.215-3.674 5.982-3.674l1.687 0.0248h0.311c3.786-0.0602 5.57 4.872 5.774 6.789 0.333 3.189-1.108 8.596-1.108 8.596 0-2.183 0.083-5.708-1.264-8.752-1.566-3.518-3.066-5.623-4.406-5.953-0.679 0.4606-1.337 1.417-1.559 3.26-0.471 2.587-0.609 5.854-0.609 7.533 0 5.946 1.143 13.79 3.394 21.88 0.423-1.251 0.797-2.456 1.091-3.582 0.461-1.779 3.394-13.55 3.394-13.55s-0.741 15.68-1.773 20.42c-0.218 1.002-0.464 1.991-0.717 3.008 3.706 10.59 9.681 20.06 16.81 26.86 2.805 2.686 6.359 4.854 9.715 6.828 7.336-1.074 14.09-1.577 19.72-1.513 7.475 0.099 12.96 1.229 15.18 3.472 1.088 1.084 1.531 2.399 1.67 3.873 0.031 0.574-0.243 1.92-0.323 2.257 0.08-0.407 0.08-2.42-5.922-4.38-4.725-1.544-13.57-1.498-24.18-0.343 12.28 6.144 24.24 9.198 28.03 7.37 0.925-0.461 2.051-2.038 2.051-2.038s-0.669 3.104-1.15 3.88c-0.755 0.981-1.785 1.702-2.951 2.066-5.985 1.63-21.56-2.147-35.15-10.09-15.17 2.286-31.84 6.509-45.2 10.99-13.13 23.54-23 34.35-31.03 30.24l-2.951-1.517c-1.202-0.705-1.385-2.409-1.108-3.805 0.9352-4.685 6.681-11.74 18.22-18.79 1.24-0.769 6.771-3.763 6.771-3.763s-4.094 4.057-5.057 4.854c-9.206 7.718-16 17.43-15.83 21.19l0.0312 0.33c7.821-1.138 19.55-17.43 34.63-47.61v-4e-3zm4.78 2.506c-2.518 4.854-4.981 9.354-7.253 13.48 12.57-5.386 26.1-8.837 38.99-11.29-1.732-1.222-3.411-2.515-4.994-3.887-7.094-6.144-12.5-13.81-16.42-21.87-2.906 8.087-6.353 15.96-10.32 23.56" fill="url(#paint1_linear)"/>
  <path d="m155.6 17v44.23c0 8.91 7.259 15.93 16.17 15.93l44.23-0.0112v-2l-60.4-58.15z" fill="#282828" opacity=".25"/>
  <path d="m155.6 15v44.23c0 8.91 7.259 15.93 16.17 15.93l44.23-0.0112-60.4-60.15z" fill="url(#paint2_linear)"/>
  <defs>
    <linearGradient id="paint0_linear" x1="39" x2="39" y1="15" y2="240.2" gradientUnits="userSpaceOnUse">
      <stop stop-color="#fb4934" offset="1e-7"/>
      <stop stop-color="#cc241d" offset="1"/>
    </linearGradient>
    <linearGradient id="paint1_linear" x1="68" x2="68" y1="68" y2="188" gradientUnits="userSpaceOnUse">
      <stop stop-color="#fb4934" offset="1e-7"/>
      <stop stop-color="#cc241d" offset="1"/>
    </linearGradient>
    <linearGradient id="paint2_linear" x1="155.6" x2="155.6" y1="15" y2="75.16" gradientUnits="userSpaceOnUse">
      <stop stop-color="#fb4934" offset="1e-7"/>
      <stop stop-color="#cc241d" offset="1"/>
    </linearGradient>
  </defs>
</svg>
